assets/star_two.svg

<?xml version="1.0" encoding="utf-8" ?>
<svg xmlns="http://www.w3.org/2000/svg" xmlns:xlink="http://www.w3.org/1999/xlink" width="11.915" height="10.1277" viewBox="0 0 11.915 10.1277">
	<path transform="matrix(1 0 0 1 -0.000488281 -1.01328e-06)" d="M5.31833 0.352301L3.86403 2.97093L0.610236 3.3922C0.0267358 3.46736 -0.20711 4.10619 0.216039 4.47209L2.57008 6.50923L2.01331 9.38695C1.91309 9.90711 2.53 10.2967 3.04668 10.0535L5.95751 8.69472L8.86833 10.0535C9.38501 10.2948 10.0019 9.90711 9.9017 9.38695L9.34493 6.50923L11.699 4.47208C12.1221 4.10619 11.8883 3.46736 11.3048 3.3922L8.05098 2.97093L6.59668 0.352301C6.33611 -0.114462 5.58113 -0.120396 5.31833 0.352301Z" fill-rule="nonzero" fill="rgb(255, 217, 61)"/>
</svg>

<svg xmlns="http://www.w3.org/2000/svg" width="11.91" height="10.13"><path fill="#FFD93D" d="M5.32.35 3.86 2.97.61 3.4c-.58.08-.82.72-.4 1.08l2.36 2.04-.56 2.88c-.1.52.52.9 1.04.66l2.9-1.36 2.92 1.36c.51.24 1.13-.14 1.03-.66L9.34 6.5l2.36-2.04c.42-.36.19-1-.4-1.08l-3.25-.42L6.6.35c-.26-.46-1.02-.47-1.28 0Z"/></svg>
